X: 113
T: Miss Vardy's Reel
C: Abraham Mackintosh
R: reel
M: C|
L: 1/8
Z: 2011 John Chambers <jc:trillian.mit.edu>
B: Abraham Mackintosh "A Collection of Strathspeys, Reels, Jigs &c.", Newcastle, after 1797, p.11
F: http://imslp.info/files/imglnks/usimg/a/a8/IMSLP80796-PMLP164326-Abraham_Mackintosh_coll.pdf
K: G
V: 1
c |\
BGdB G3B  | cAec A2af | gbag fedc | BAGF Eeeg |
BGdB G3B  | cAec A3f  | gbag fedc | BgdB G3  || g |
dgba gddg | aAag eaab | gbag fedc | BAGF Eeeg |
dgba gddg | aAag eaab | gbag fedc | BgdB GBd |]
V: 2 clef=bass middle=d
z |\
g2g2 b2g2 | a2a2  c'2d'c'| b2B2 c2A2 | B2B2 e2E2 |
g2g2 b2g2 | a2a2  a2d2   | g2B2 c2d2 | g2G2 g3  || z |
g2f2 g2b2 | c'2c2 c'2d'2 | b2B2 c2A2 | B2B2 e2E2 |
g2f2 g2b2 | c'2c2 c'2d'2 | b2B2 c2d2 | g2G2 g2z |]

%%sep 2 1 500

